teeny/solid/pen.svg

<svg width="15" height="15" viewBox="0 0 15 15" fill="none" xmlns="http://www.w3.org/2000/svg">
<path d="M2 0H13V0.5C13 2.14804 12.2748 3.62625 11.1259 4.63355L13.094 8.56355L8 14.6724V8.99414H7V14.6715L1.90674 8.5636L3.87393 4.63343C2.72515 3.62613 2 2.14797 2 0.5V0Z" fill="black"/>
</svg>

<svg viewBox="0 0 15 15" xmlns="http://www.w3.org/2000/svg"><path d="M2 0h11v.5c0 1.64-.73 3.12-1.88 4.13l1.96 3.93 -5.1 6.1V8.98h-1v5.67l-5.1-6.11L3.84 4.6C2.69 3.59 1.96 2.11 1.96.46v-.5Z"/></svg>
